src/images/plan-enterprise.svg

<svg xmlns="http://www.w3.org/2000/svg" width="269" height="257" fill="none" viewBox="0 0 269 257"><path fill="#fff" fill-rule="evenodd" stroke="#F7A501" stroke-linecap="round" stroke-linejoin="round" stroke-width="4" d="M10.1312 2H248.991C250.041 2 251.081 2.207 252.051 2.60919C253.022 3.01137 253.903 3.60085 254.645 4.34391C255.388 5.08697 255.976 5.96906 256.378 6.93974C256.779 7.91043 256.985 8.95067 256.984 10.001V246.074C256.984 247.123 256.777 248.163 256.375 249.132C255.974 250.102 255.385 250.983 254.643 251.726C253.901 252.468 253.019 253.057 252.05 253.458C251.08 253.86 250.041 254.067 248.991 254.067H10.1312C8.01064 254.067 5.97682 253.225 4.47663 251.726C2.97643 250.227 2.13265 248.194 2.13062 246.074V10.001C2.13062 7.87902 2.97349 5.84393 4.47391 4.34345C5.97432 2.84296 8.00931 2 10.1312 2Z" clip-rule="evenodd"/><path fill="#F7A501" fill-rule="evenodd" d="M2.16907 189.39H257.537V245.344C257.538 246.485 257.314 247.615 256.878 248.67C256.442 249.724 255.803 250.682 254.996 251.49C254.19 252.297 253.232 252.937 252.178 253.374C251.124 253.811 249.994 254.036 248.852 254.036L10.7845 254.766C9.66918 254.775 8.56328 254.562 7.53048 254.141C6.49767 253.719 5.55845 253.098 4.76688 252.312C3.97532 251.526 3.34709 250.591 2.91839 249.562C2.48969 248.532 2.26895 247.427 2.26898 246.312L2.16907 189.39Z" clip-rule="evenodd"/><path fill="#35416B" fill-rule="evenodd" d="M84.3662 50.698H177.607V143.436H84.3662V50.698Z" clip-rule="evenodd"/><path fill="#35416B" fill-rule="evenodd" d="M66.4589 149.024H197.359V189.39H66.4589V149.024Z" clip-rule="evenodd"/><path fill="#F7A501" fill-rule="evenodd" d="M96.0559 63.1106H165.164V128.856H96.0559V63.1106Z" clip-rule="evenodd"/><path fill="#F96132" fill-rule="evenodd" d="M218.08 50.6057H256.83V143.344H218.064L218.08 50.6057Z" clip-rule="evenodd"/><path fill="#F96132" fill-rule="evenodd" d="M200.172 148.931H257.046L257.491 189.628L200.172 189.267V148.931Z" clip-rule="evenodd"/><path fill="#fff" fill-rule="evenodd" d="M229.769 63.0261L257.153 63.0722V128.487L229.739 128.764L229.769 63.0261Z" clip-rule="evenodd"/><path fill="#F96132" fill-rule="evenodd" d="M2.70711 50.6672H43.6328V143.405H2L2.70711 50.6672Z" clip-rule="evenodd"/><path fill="#F96132" fill-rule="evenodd" d="M2.06909 149.362L63.4076 148.993V189.344L2.21517 189.498L2.06909 149.362Z" clip-rule="evenodd"/><path fill="#35416B" fill-rule="evenodd" d="M2.17687 63.0876H31.213V128.825L2.00781 129.317L2.17687 63.0876Z" clip-rule="evenodd"/><path fill="#fff" fill-rule="evenodd" d="M2.30762 171.259L28.9688 171.205L51.6258 217.359L2.30762 217.966V171.259Z" clip-rule="evenodd"/><path fill="#BEBEBE" fill-rule="evenodd" d="M51.6566 217.328L51.6029 230.871L2.41528 232.923V217.897L51.6566 217.328Z" clip-rule="evenodd"/><path fill="#fff" fill-rule="evenodd" d="M135.045 201.441H183.303L213.222 240.932H164.965L135.045 201.441Z" clip-rule="evenodd"/><path fill="#F96132" fill-rule="evenodd" d="M130.879 241.308C130.879 241.308 132.247 243.844 130.326 244.759C128.143 245.797 127.09 243.084 127.09 243.084L111.097 208.966L109.375 200.058L114.886 207.19L130.879 241.308Z" clip-rule="evenodd"/><path fill="#fff" fill-rule="evenodd" d="M118.828 244.582C118.828 244.582 120.196 247.119 118.275 248.033C116.092 249.071 115.039 246.358 115.039 246.358L99.0457 212.24L97.3241 203.332L102.835 210.465L118.828 244.582Z" clip-rule="evenodd"/><path fill="#F7A501" fill-rule="evenodd" d="M120.865 244.36C120.865 244.36 121.964 247.027 123.893 246.112C126.076 245.082 124.662 242.553 124.662 242.553L108.338 208.605L102.535 201.641L104.564 210.419L120.865 244.36Z" clip-rule="evenodd"/><path fill="#F7A501" fill-rule="evenodd" d="M182.918 14.5127H214.03V53.926H182.918V14.5127Z" clip-rule="evenodd"/><path fill="#F7A501" fill-rule="evenodd" d="M48.8898 36.3098H78.7481V64.9629H48.8898V36.3098Z" clip-rule="evenodd"/><path fill="#F7A501" fill-rule="evenodd" d="M185.101 68.406H214.537V105.69H185.101V68.406Z" clip-rule="evenodd"/><path fill="#35416B" fill-rule="evenodd" d="M195.477 14.5125C195.487 14.2004 195.589 13.8982 195.77 13.6438C195.952 13.3893 196.204 13.1938 196.495 13.0816C196.787 12.9694 197.105 12.9454 197.41 13.0127C197.715 13.0801 197.993 13.2357 198.21 13.4602C198.427 13.6847 198.574 13.9681 198.631 14.2752C198.688 14.5823 198.653 14.8994 198.531 15.1869C198.41 15.4745 198.206 15.7199 197.946 15.8925C197.685 16.065 197.38 16.1571 197.067 16.1573C196.855 16.1543 196.645 16.1093 196.45 16.0249C196.255 15.9406 196.078 15.8184 195.93 15.6656C195.782 15.5128 195.666 15.3322 195.588 15.1343C195.511 14.9364 195.473 14.7251 195.477 14.5125V14.5125Z" clip-rule="evenodd"/><path fill="#F96132" fill-rule="evenodd" d="M60.9407 36.3099C60.9407 36.0059 61.0309 35.7087 61.1998 35.4559C61.3687 35.2031 61.6088 35.0061 61.8896 34.8897C62.1705 34.7734 62.4795 34.7429 62.7777 34.8022C63.0759 34.8616 63.3498 35.008 63.5647 35.2229C63.7797 35.4379 63.9261 35.7118 63.9854 36.01C64.0447 36.3082 64.0142 36.6173 63.8979 36.8981C63.7815 37.179 63.5846 37.4191 63.3318 37.588C63.079 37.7569 62.7818 37.8471 62.4778 37.8471C62.0701 37.8471 61.6792 37.6851 61.3909 37.3968C61.1026 37.1086 60.9407 36.7176 60.9407 36.3099Z" clip-rule="evenodd"/><path fill="#F96132" fill-rule="evenodd" d="M196.983 68.3985C196.983 68.0945 197.073 67.7973 197.242 67.5445C197.411 67.2917 197.651 67.0947 197.932 66.9783C198.212 66.862 198.522 66.8316 198.82 66.8909C199.118 66.9502 199.392 67.0966 199.607 67.3116C199.822 67.5265 199.968 67.8004 200.028 68.0986C200.087 68.3968 200.056 68.7059 199.94 68.9868C199.824 69.2677 199.627 69.5077 199.374 69.6766C199.121 69.8455 198.824 69.9357 198.52 69.9357C198.112 69.9357 197.721 69.7738 197.433 69.4855C197.145 69.1972 196.983 68.8062 196.983 68.3985Z" clip-rule="evenodd"/><path stroke="#35416B" stroke-linecap="round" stroke-linejoin="round" stroke-width="1.111" d="M197.475 15.1582L198.666 16.8414"/><path fill="#F96132" fill-rule="evenodd" d="M62.8621 36.9324L63.9996 38.5464Z" clip-rule="evenodd"/><path stroke="#F96132" stroke-linecap="round" stroke-linejoin="round" stroke-width="1.111" d="M62.8621 36.9324L63.9996 38.5464"/><path stroke="#F96132" stroke-linecap="round" stroke-linejoin="round" stroke-width="1.111" d="M198.874 69.0134L199.996 70.6044"/><path fill="#fff" fill-rule="evenodd" d="M207.113 158.946L228.855 188.068H257.538L258.352 158.946H207.113Z" clip-rule="evenodd"/><path fill="#BEBEBE" fill-rule="evenodd" d="M228.663 186.316V229.195L259.074 228.896L258.467 186.316H228.663Z" clip-rule="evenodd"/><path fill="#E7E7E7" fill-rule="evenodd" d="M207.289 158.877L206.044 197.783L228.962 229.564L228.755 186.07L207.289 158.877Z" clip-rule="evenodd"/><path fill="#fff" fill-opacity=".65" fill-rule="evenodd" d="M235.541 95.991C235.541 95.991 226.203 105.091 226.388 113.269C226.572 121.447 233.151 118.365 235.126 123.883C237.101 129.402 234.296 135.327 234.296 135.327C234.296 135.327 243.819 127.941 243.972 121.385C244.126 114.829 237.055 115.452 234.919 109.088C232.782 102.724 235.541 95.991 235.541 95.991Z" clip-rule="evenodd"/><path fill="#35416B" fill-rule="evenodd" d="M219.217 136.58L219.824 171.274C219.824 171.274 225.204 178.03 237.04 177.692C249.667 177.331 253.433 170.283 253.433 170.283L253.679 137.779C253.679 137.779 253.087 135.473 251.996 134.566C248.199 131.53 245.294 129.955 236.456 129.847C229.677 129.793 224.743 131.761 222.068 133.575C220.927 134.377 219.958 135.399 219.217 136.58V136.58Z" clip-rule="evenodd"/><path stroke="#35416B" stroke-linecap="round" stroke-linejoin="round" stroke-width="6.997" d="M253.564 143.474C253.564 143.474 264.992 143.536 264.992 144.912C264.992 159.261 252.642 164.895 252.642 164.895"/><path fill="#F96132" fill-rule="evenodd" d="M221.861 138.171C221.861 134.674 228.378 131.838 236.417 131.838C244.457 131.838 250.974 134.674 250.974 138.171C250.974 141.668 244.457 144.504 236.417 144.504C228.378 144.504 221.861 141.668 221.861 138.171Z" clip-rule="evenodd"/><path fill="#F7A501" fill-rule="evenodd" d="M222.245 139.578C222.245 139.578 229.623 137.087 236.233 137.087C242.843 137.087 250.136 140.208 250.136 140.208C250.136 140.208 250.013 140.976 247.1 142.514C244.848 143.682 240.099 144.689 236.494 144.819C232.4 144.874 228.355 143.916 224.72 142.029C222.583 140.807 222.245 139.578 222.245 139.578Z" clip-rule="evenodd"/><path fill="#F7A501" fill-opacity=".65" fill-rule="evenodd" d="M235.541 95.991C235.541 95.991 226.203 105.091 226.388 113.269C226.572 121.447 233.151 118.365 235.126 123.883C237.101 129.402 234.296 135.327 234.296 135.327C234.296 135.327 243.819 127.941 243.972 121.385C244.126 114.829 237.055 115.452 234.919 109.088C232.782 102.724 235.541 95.991 235.541 95.991Z" clip-rule="evenodd"/></svg>

<svg fill="none" viewBox="0 0 269 257"><path fill="#fff" fill-rule="evenodd" stroke="#F7A501" stroke-linecap="round" stroke-linejoin="round" stroke-width="4" d="M10.131 2h238.86a7.99 7.99 0 017.387 4.94c.401.97.607 2.01.606 3.061v236.073a7.993 7.993 0 01-7.993 7.993H10.131a8 8 0 01-8-7.993V10.001a8.001 8.001 0 018-8.001z" clip-rule="evenodd"/><path fill="#F7A501" fill-rule="evenodd" d="M2.17 189.39h255.367v55.954a8.688 8.688 0 01-5.359 8.03 8.683 8.683 0 01-3.326.662l-238.067.73a8.44 8.44 0 01-6.018-2.454 8.462 8.462 0 01-2.498-6l-.1-56.922z" clip-rule="evenodd"/><path fill="#35416B" fill-rule="evenodd" d="M84.366 50.698h93.241v92.738h-93.24V50.698zM66.46 149.024h130.9v40.366H66.46v-40.366z" clip-rule="evenodd"/><path fill="#F7A501" fill-rule="evenodd" d="M96.056 63.11h69.108v65.746H96.056V63.111z" clip-rule="evenodd"/><path fill="#F96132" fill-rule="evenodd" d="M218.08 50.606h38.75v92.738h-38.766l.016-92.738zm-17.908 98.325h56.874l.445 40.697-57.319-.361v-40.336z" clip-rule="evenodd"/><path fill="#fff" fill-rule="evenodd" d="M229.769 63.026l27.384.046v65.415l-27.414.277.03-65.738z" clip-rule="evenodd"/><path fill="#F96132" fill-rule="evenodd" d="M2.707 50.667h40.926v92.738H2l.707-92.738zm-.638 98.695l61.339-.369v40.351l-61.193.154-.146-40.136z" clip-rule="evenodd"/><path fill="#35416B" fill-rule="evenodd" d="M2.177 63.088h29.036v65.737l-29.205.492.169-66.23z" clip-rule="evenodd"/><path fill="#fff" fill-rule="evenodd" d="M2.308 171.259l26.66-.054 22.658 46.154-49.318.607v-46.707z" clip-rule="evenodd"/><path fill="#BEBEBE" fill-rule="evenodd" d="M51.657 217.328l-.054 13.543-49.188 2.052v-15.026l49.242-.569z" clip-rule="evenodd"/><path fill="#fff" fill-rule="evenodd" d="M135.045 201.441h48.258l29.919 39.491h-48.257l-29.92-39.491z" clip-rule="evenodd"/><path fill="#F96132" fill-rule="evenodd" d="M130.879 241.308s1.368 2.536-.553 3.451c-2.183 1.038-3.236-1.675-3.236-1.675l-15.993-34.118-1.722-8.908 5.511 7.132 15.993 34.118z" clip-rule="evenodd"/><path fill="#fff" fill-rule="evenodd" d="M118.828 244.582s1.368 2.537-.553 3.451c-2.183 1.038-3.236-1.675-3.236-1.675L99.046 212.24l-1.722-8.908 5.511 7.133 15.993 34.117z" clip-rule="evenodd"/><path fill="#F7A501" fill-rule="evenodd" d="M120.865 244.36s1.099 2.667 3.028 1.752c2.183-1.03.769-3.559.769-3.559l-16.324-33.948-5.803-6.964 2.029 8.778 16.301 33.941zm62.053-229.847h31.112v39.413h-31.112V14.513zM48.89 36.31h29.858v28.653H48.89V36.31zM185.1 68.406h29.436v37.284H185.1V68.406z" clip-rule="evenodd"/><path fill="#35416B" fill-rule="evenodd" d="M195.477 14.512a1.586 1.586 0 011.018-1.43 1.593 1.593 0 012.136 1.193 1.59 1.59 0 01-1.564 1.882 1.612 1.612 0 01-1.59-1.645z" clip-rule="evenodd"/><path fill="#F96132" fill-rule="evenodd" d="M60.94 36.31a1.537 1.537 0 113.075 0 1.537 1.537 0 01-3.074 0zm136.043 32.088a1.536 1.536 0 113.073 0 1.536 1.536 0 01-3.073 0z" clip-rule="evenodd"/><path stroke="#35416B" stroke-linecap="round" stroke-linejoin="round" stroke-width="1.111" d="M197.475 15.158l1.191 1.683"/><path fill="#F96132" fill-rule="evenodd" d="M62.862 36.932L64 38.546z" clip-rule="evenodd"/><path stroke="#F96132" stroke-linecap="round" stroke-linejoin="round" stroke-width="1.111" d="M62.862 36.932L64 38.546m134.874 30.467l1.122 1.591"/><path fill="#fff" fill-rule="evenodd" d="M207.113 158.946l21.742 29.122h28.683l.814-29.122h-51.239z" clip-rule="evenodd"/><path fill="#BEBEBE" fill-rule="evenodd" d="M228.663 186.316v42.879l30.411-.299-.607-42.58h-29.804z" clip-rule="evenodd"/><path fill="#E7E7E7" fill-rule="evenodd" d="M207.289 158.877l-1.245 38.906 22.918 31.781-.207-43.494-21.466-27.193z" clip-rule="evenodd"/><path fill="#fff" fill-opacity=".65" fill-rule="evenodd" d="M235.541 95.991s-9.338 9.1-9.153 17.278c.184 8.178 6.763 5.096 8.738 10.614 1.975 5.519-.83 11.444-.83 11.444s9.523-7.386 9.676-13.942c.154-6.556-6.917-5.933-9.053-12.297-2.137-6.364.622-13.097.622-13.097z" clip-rule="evenodd"/><path fill="#35416B" fill-rule="evenodd" d="M219.217 136.58l.607 34.694s5.38 6.756 17.216 6.418c12.627-.361 16.393-7.409 16.393-7.409l.246-32.504s-.592-2.306-1.683-3.213c-3.797-3.036-6.702-4.611-15.54-4.719-6.779-.054-11.713 1.914-14.388 3.728a10.483 10.483 0 00-2.851 3.005z" clip-rule="evenodd"/><path stroke="#35416B" stroke-linecap="round" stroke-linejoin="round" stroke-width="6.997" d="M253.564 143.474s11.428.062 11.428 1.438c0 14.349-12.35 19.983-12.35 19.983"/><path fill="#F96132" fill-rule="evenodd" d="M221.861 138.171c0-3.497 6.517-6.333 14.556-6.333 8.04 0 14.557 2.836 14.557 6.333 0 3.497-6.517 6.333-14.557 6.333-8.039 0-14.556-2.836-14.556-6.333z" clip-rule="evenodd"/><path fill="#F7A501" fill-rule="evenodd" d="M222.245 139.578s7.378-2.491 13.988-2.491c6.61 0 13.903 3.121 13.903 3.121s-.123.768-3.036 2.306c-2.252 1.168-7.001 2.175-10.606 2.305a24.831 24.831 0 01-11.774-2.79c-2.137-1.222-2.475-2.451-2.475-2.451z" clip-rule="evenodd"/><path fill="#F7A501" fill-opacity=".65" fill-rule="evenodd" d="M235.541 95.991s-9.338 9.1-9.153 17.278c.184 8.178 6.763 5.096 8.738 10.614 1.975 5.519-.83 11.444-.83 11.444s9.523-7.386 9.676-13.942c.154-6.556-6.917-5.933-9.053-12.297-2.137-6.364.622-13.097.622-13.097z" clip-rule="evenodd"/></svg>
